;FLAVOR:Marlin
;TIME:13824
;Filament used: 11.5438m
;Layer height: 0.28
;MINX:54.445
;MINY:49.428
;MINZ:0.28
;MAXX:180.272
;MAXY:177.528
;MAXZ:10.92
;Generated with Cura_SteamEngine 4.8.0
M140 S60
M105
M190 S60
M104 S200
M105
M109 S200
M82 ;absolute extrusion mode
M201 X500.00 Y500.00 Z100.00 E5000.00 ;Setup machine max acceleration
M203 X500.00 Y500.00 Z10.00 E50.00 ;Setup machine max feedrate
M204 P500.00 R1000.00 T500.00 ;Setup Print/Retract/Travel acceleration
M205 X8.00 Y8.00 Z0.40 E5.00 ;Setup Jerk
M220 S100 ;Reset Feedrate
M221 S100 ;Reset Flowrate

G28 ;Home

G92 E0 ;Reset Extruder
G1 Z2.0 F3000 ;Move Z Axis up
G1 X10.1 Y20 Z0.28 F5000.0 ;Move to start position
G1 X10.1 Y200.0 Z0.28 F1500.0 E15 ;Draw the first line
G1 X10.4 Y200.0 Z0.28 F5000.0 ;Move to side a little
G1 X10.4 Y20 Z0.28 F1500.0 E30 ;Draw the second line
G92 E0 ;Reset Extruder
G1 Z2.0 F3000 ;Move Z Axis up

G92 E0
G92 E0
G1 F1500 E-6.5
;LAYER_COUNT:39
;LAYER:0
M107
G0 F6000 X57.651 Y53.29 Z0.28
;TYPE:SKIRT
G1 F1500 E0
G1 F1200 X58.34 Y52.653 E0.04369
G1 X59.08 Y52.077 E0.08736
G1 X59.867 Y51.567 E0.13103
G1 X60.695 Y51.125 E0.17473
G1 X61.557 Y50.756 E0.21839
G1 X62.447 Y50.461 E0.26205
G1 X63.359 Y50.243 E0.30571
G1 X64.287 Y50.104 E0.34941
G1 X65.146 Y50.046 E0.3895
G1 X65.466 Y50.037 E0.4044
G1 X65.775 Y50.033 E0.41879
G1 X68.448 Y50.033 E0.54326
G1 X71.056 Y49.996 E0.66471
G1 X73.577 Y49.889 E0.78221
G1 X76.044 Y49.714 E0.89737
G1 X77.819 Y49.537 E0.98043
G1 X78.498 Y49.478 E1.01217
G1 X79.134 Y49.441 E1.04183
G1 X79.453 Y49.432 E1.05669
G1 X79.763 Y49.428 E1.07113
G1 X154.926 Y49.428 E4.57103
G1 X155.785 Y49.439 E4.61103
G1 X156.721 Y49.492 E4.65469
G1 X157.649 Y49.625 E4.69834
G1 X158.563 Y49.837 E4.74203
G1 X159.456 Y50.125 E4.78572
G1 X160.32 Y50.489 E4.82938
G1 X161.151 Y50.925 E4.87307
G1 X161.941 Y51.43 E4.91673
G1 X162.685 Y52 E4.96038
G1 X163.378 Y52.632 E5.00405
G1 X164.015 Y53.321 E5.04774
G1 X164.591 Y54.061 E5.09141
G1 X165.231 Y55.074 E5.1472
G1 X165.421 Y55.415 E5.16538
G1 X166.735 Y57.684 E5.28747
G1 X168.061 Y59.832 E5.40501
G1 X169.439 Y61.933 E5.52201
G1 X170.877 Y63.992 E5.63895
G1 X172.382 Y66.024 E5.7567
G1 X173.932 Y67.998 E5.87357
G1 X175.553 Y69.944 E5.9915
G1 X177.212 Y71.828 E6.10839
G1 X177.437 Y72.078 E6.12405
G1 X178.034 Y72.801 E6.16771
G1 X178.568 Y73.572 E6.21138
G1 X179.033 Y74.386 E6.25503
G1 X179.428 Y75.237 E6.29872
G1 X179.749 Y76.118 E6.34238
G1 X179.994 Y77.024 E6.38608
G1 X180.16 Y77.947 E6.42975
G1 X180.257 Y79.1 E6.48363
G1 X180.267 Y79.425 E6.49877
G1 X180.272 Y79.763 E6.51451
G1 X180.271 Y155.083 E10.02173
G1 X180.261 Y155.784 E10.05437
G1 X180.208 Y156.72 E10.09802
G1 X180.075 Y157.649 E10.14172
G1 X179.863 Y158.562 E10.18537
G1 X179.575 Y159.455 E10.22906
G1 X179.211 Y160.319 E10.27271
G1 X178.775 Y161.15 E10.31641
G1 X178.27 Y161.94 E10.36007
G1 X177.7 Y162.684 E10.40371
G1 X177.068 Y163.377 E10.44739
G1 X176.379 Y164.014 E10.49108
G1 X175.43 Y164.735 E10.54658
G1 X174.763 Y165.187 E10.58409
G1 X172.684 Y166.636 E10.70209
G1 X170.647 Y168.145 E10.82014
G1 X168.663 Y169.702 E10.93757
G1 X166.758 Y171.287 E11.05296
G1 X164.83 Y172.985 E11.17259
G1 X163.27 Y174.439 E11.27189
G1 X163.008 Y174.676 E11.28834
G1 X162.287 Y175.275 E11.33199
G1 X161.516 Y175.81 E11.37569
G1 X160.703 Y176.278 E11.41937
G1 X159.854 Y176.674 E11.46299
G1 X158.973 Y176.997 E11.50669
G1 X158.068 Y177.244 E11.55037
G1 X157.146 Y177.413 E11.59401
G1 X155.966 Y177.513 E11.64916
G1 X155.64 Y177.523 E11.66434
G1 X155.303 Y177.528 E11.68004
G1 X79.982 Y177.527 E15.1873
G1 X79.285 Y177.517 E15.21976
G1 X78.506 Y177.478 E15.25608
G1 X75.673 Y177.236 E15.38847
G1 X73.191 Y177.096 E15.50423
G1 X69.257 Y177.013 E15.68745
G1 X65.994 Y177.012 E15.83939
G1 X65.296 Y177.002 E15.8719
G1 X64.36 Y176.948 E15.91555
G1 X63.432 Y176.816 E15.9592
G1 X62.518 Y176.604 E16.00289
G1 X61.626 Y176.315 E16.04655
G1 X60.761 Y175.952 E16.09023
G1 X59.931 Y175.516 E16.13389
G1 X59.14 Y175.011 E16.17759
G1 X58.396 Y174.44 E16.22126
G1 X57.703 Y173.808 E16.26493
G1 X57.066 Y173.12 E16.30859
G1 X56.491 Y172.379 E16.35226
G1 X55.98 Y171.593 E16.39592
G1 X55.538 Y170.765 E16.43962
G1 X55.169 Y169.903 E16.48328
G1 X54.874 Y169.013 E16.52694
G1 X54.656 Y168.101 E16.57061
G1 X54.516 Y167.173 E16.61431
G1 X54.458 Y166.301 E16.655
G1 X54.449 Y165.969 E16.67047
G1 X54.445 Y165.671 E16.68434
G1 X54.446 Y141.164 E17.82549
G1 X54.456 Y140.458 E17.85837
G1 X54.465 Y140.146 E17.8729
G1 X54.49 Y139.55 E17.90068
G1 X54.566 Y136.882 E18.02496
G1 X54.575 Y135.588 E18.08522
G1 X54.575 Y117.883 E18.90964
G1 X54.538 Y115.28 E19.03086
G1 X54.485 Y114.009 E19.09009
G1 X54.45 Y112.829 E19.14506
G1 X54.445 Y112.503 E19.16024
G1 X54.445 Y87.413 E20.32854
G1 X54.447 Y86.421 E20.37473
G1 X54.445 Y86.157 E20.38702
G1 X54.446 Y61.571 E21.53185
G1 X54.456 Y60.882 E21.56394
G1 X54.51 Y59.946 E21.60759
G1 X54.643 Y59.018 E21.65125
G1 X54.855 Y58.104 E21.69494
G1 X55.143 Y57.212 E21.73858
G1 X55.507 Y56.347 E21.78228
G1 X55.943 Y55.517 E21.82594
G1 X56.448 Y54.727 E21.8696
G1 X57.019 Y53.983 E21.91327
G1 X57.651 Y53.29 E21.95694
G0 F6000 X58.043 Y53.464
G1 F1200 X58.728 Y52.85 E21.99978
G1 X59.465 Y52.297 E22.04268
G1 X60.246 Y51.81 E22.08554
G1 X61.067 Y51.393 E22.12841
G1 X61.921 Y51.049 E22.17129
G1 X62.801 Y50.78 E22.21413
G1 X63.702 Y50.588 E22.25703
G1 X64.615 Y50.475 E22.29987
G1 X65.157 Y50.446 E22.32514
G1 X65.477 Y50.437 E22.34005
G1 X65.775 Y50.433 E22.35393
G1 X68.454 Y50.433 E22.47867
G1 X71.079 Y50.396 E22.60091
G1 X73.587 Y50.289 E22.7178
G1 X76.076 Y50.113 E22.83399
G1 X78 Y49.922 E22.92402
G1 X78.533 Y49.876 E22.94893
G1 X79.145 Y49.841 E22.97748
G1 X79.464 Y49.832 E22.99234
G1 X79.763 Y49.828 E23.00626
G1 X154.926 Y49.828 E26.50616
G1 X155.779 Y49.839 E26.54589
G1 X156.698 Y49.892 E26.58875
G1 X157.609 Y50.025 E26.63162
G1 X158.505 Y50.236 E26.67448
G1 X159.38 Y50.524 E26.71738
G1 X160.226 Y50.887 E26.76024
G1 X161.037 Y51.322 E26.8031
G1 X161.808 Y51.826 E26.84599
G1 X162.532 Y52.394 E26.88884
G1 X163.204 Y53.024 E26.93173
G1 X163.818 Y53.709 E26.97456
G1 X164.371 Y54.445 E27.01743
G1 X164.882 Y55.269 E27.06258
G1 X165.084 Y55.63 E27.08184
G1 X166.397 Y57.9 E27.20395
G1 X167.718 Y60.039 E27.32101
G1 X169.103 Y62.151 E27.43862
G1 X170.56 Y64.237 E27.5571
G1 X172.045 Y66.241 E27.67324
G1 X173.643 Y68.277 E27.79376
G1 X175.228 Y70.181 E27.90911
G1 X176.887 Y72.064 E28.02597
G1 X177.14 Y72.345 E28.04358
G1 X177.725 Y73.056 E28.08645
G1 X178.247 Y73.814 E28.12931
G1 X178.701 Y74.615 E28.17218
G1 X179.084 Y75.452 E28.21504
G1 X179.393 Y76.32 E28.25794
G1 X179.625 Y77.21 E28.30077
G1 X179.78 Y78.118 E28.34366
G1 X179.857 Y79.112 E28.39008
G1 X179.867 Y79.437 E28.40522
G1 X179.872 Y79.763 E28.42041
G1 X179.871 Y155.077 E31.92734
G1 X179.861 Y155.778 E31.95999
G1 X179.808 Y156.697 E32.00285
G1 X179.675 Y157.608 E32.04572
G1 X179.464 Y158.504 E32.08858
G1 X179.176 Y159.379 E32.13148
G1 X178.813 Y160.225 E32.17434
G1 X178.378 Y161.036 E32.2172
G1 X177.874 Y161.807 E32.26009
G1 X177.305 Y162.531 E32.30296
G1 X176.676 Y163.203 E32.34582
G1 X175.991 Y163.818 E32.38869
G1 X175.206 Y164.404 E32.4343
G1 X174.549 Y164.849 E32.47125
G1 X172.447 Y166.315 E32.59058
G1 X170.385 Y167.842 E32.71006
G1 X168.427 Y169.378 E32.82594
G1 X166.483 Y170.996 E32.94371
G1 X164.575 Y172.676 E33.06209
G1 X163.002 Y174.142 E33.16221
G1 X162.74 Y174.379 E33.17866
G1 X162.031 Y174.966 E33.22152
G1 X161.274 Y175.49 E33.26439
G1 X160.474 Y175.946 E33.30727
G1 X159.638 Y176.331 E33.35013
G1 X158.771 Y176.642 E33.39302
G1 X157.881 Y176.876 E33.43587
G1 X156.973 Y177.032 E33.47877
G1 X155.954 Y177.113 E33.52637
G1 X155.628 Y177.123 E33.54155
G1 X155.303 Y177.128 E33.55669
G1 X79.988 Y177.127 E37.06367
G1 X79.291 Y177.117 E37.09613
G1 X78.54 Y177.079 E37.13114
G1 X75.696 Y176.836 E37.26406
G1 X73.221 Y176.696 E37.37949
G1 X69.265 Y176.613 E37.56373
G1 X66 Y176.612 E37.71577
G1 X65.302 Y176.602 E37.74827
G1 X64.383 Y176.549 E37.79114
G1 X63.472 Y176.416 E37.83401
G1 X62.576 Y176.205 E37.87687
G1 X61.702 Y175.917 E37.91972
G1 X60.855 Y175.554 E37.96263
G1 X60.044 Y175.119 E38.00548
G1 X59.274 Y174.615 E38.04833
G1 X58.55 Y174.046 E38.09121
G1 X57.878 Y173.416 E38.1341
G1 X57.263 Y172.731 E38.17697
G1 X56.71 Y171.995 E38.21983
G1 X56.223 Y171.214 E38.26269
G1 X55.806 Y170.393 E38.30557
G1 X55.461 Y169.539 E38.34846
G1 X55.192 Y168.659 E38.39131
G1 X55 Y167.758 E38.4342
G1 X54.887 Y166.845 E38.47704
G1 X54.858 Y166.29 E38.50292
G1 X54.849 Y165.958 E38.51838
G1 X54.845 Y165.671 E38.53175
G1 X54.846 Y141.17 E39.67262
G1 X54.856 Y140.464 E39.7055
G1 X54.865 Y140.163 E39.71952
G1 X54.89 Y139.579 E39.74674
G1 X54.966 Y136.896 E39.87172
G1 X54.975 Y135.591 E39.93249
G1 X54.975 Y117.877 E40.75732
G1 X54.938 Y115.257 E40.87933
G1 X54.885 Y113.997 E40.93806
G1 X54.85 Y112.817 E40.99303
G1 X54.845 Y112.503 E41.00765
G1 X54.845 Y87.414 E42.1759
G1 X54.847 Y86.418 E42.22228
G1 X54.845 Y86.154 E42.23457
G1 X54.846 Y61.577 E43.37898
G1 X54.856 Y60.888 E43.41106
G1 X54.909 Y59.969 E43.45393
G1 X55.042 Y59.058 E43.4968
G1 X55.254 Y58.162 E43.53967
G1 X55.542 Y57.288 E43.58252
G1 X55.905 Y56.442 E43.62539
G1 X56.34 Y55.63 E43.66828
G1 X56.844 Y54.86 E43.71113
G1 X57.413 Y54.136 E43.75401
G1 X58.043 Y53.464 E43.7969
G0 F6000 X58.434 Y53.643
G1 F1200 X59.116 Y53.051 E43.83895
G1 X59.848 Y52.521 E43.88104
G1 X60.624 Y52.059 E43.92309
G1 X61.437 Y51.667 E43.96512
G1 X62.282 Y51.348 E44.00717
G1 X63.152 Y51.105 E44.04923
G1 X64.04 Y50.941 E44.09128
G1 X65.168 Y50.846 E44.14399
G1 X65.488 Y50.837 E44.1589
G1 X65.775 Y50.833 E44.17227
G1 X68.46 Y50.833 E44.29729
G1 X71.066 Y50.796 E44.41865
G1 X73.631 Y50.687 E44.53819
G1 X76.11 Y50.511 E44.65392
G1 X77.898 Y50.333 E44.73758
G1 X78.567 Y50.275 E44.76885
G1 X79.156 Y50.241 E44.79633
G1 X79.475 Y50.232 E44.81118
G1 X79.763 Y50.228 E44.8246
G1 X154.926 Y50.228 E48.3245
G1 X155.773 Y50.239 E48.36394
G1 X156.675 Y50.292 E48.40602
G1 X157.568 Y50.424 E48.44805
G1 X158.446 Y50.635 E48.4901
G1 X159.302 Y50.923 E48.53215
G1 X160.13 Y51.285 E48.57423
G1 X160.922 Y51.719 E48.61628
G1 X161.672 Y52.222 E48.65833
G1 X162.375 Y52.788 E48.70036
G1 X163.025 Y53.415 E48.74241
G1 X163.617 Y54.097 E48.78447
G1 X164.147 Y54.829 E48.82655
G1 X164.533 Y55.464 E48.86115
G1 X164.734 Y55.823 E48.88031
G1 X166.054 Y58.104 E49.00302
G1 X167.376 Y60.247 E49.12027
G1 X168.785 Y62.394 E49.23985
G1 X170.226 Y64.458 E49.35706
G1 X171.742 Y66.503 E49.4756
G1 X173.319 Y68.513 E49.59456
G1 X174.937 Y70.456 E49.7123
G1 X176.63 Y72.377 E49.83153
G1 X176.842 Y72.613 E49.8463
G1 X177.416 Y73.31 E49.88834
G1 X177.926 Y74.056 E49.93042
G1 X178.368 Y74.843 E49.97245
G1 X178.739 Y75.667 E50.01453
G1 X179.036 Y76.52 E50.05659
G1 X179.255 Y77.396 E50.09864
G1 X179.397 Y78.288 E50.14069
G1 X179.457 Y79.124 E50.17972
G1 X179.467 Y79.449 E50.19486
G1 X179.472 Y79.763 E50.20949
G1 X179.471 Y155.071 E53.71614
G1 X179.461 Y155.772 E53.74879
G1 X179.408 Y156.674 E53.79086
G1 X179.276 Y157.567 E53.83289
G1 X179.065 Y158.446 E53.87499
G1 X178.777 Y159.302 E53.91704
G1 X178.415 Y160.129 E53.95908
G1 X177.981 Y160.921 E54.00113
G1 X177.478 Y161.671 E54.04318
G1 X176.911 Y162.374 E54.08523
G1 X176.285 Y163.024 E54.12725
G1 X175.603 Y163.617 E54.16934
G1 X174.982 Y164.072 E54.20518
G1 X174.351 Y164.5 E54.24069
G1 X172.203 Y165.998 E54.36263
G1 X170.168 Y167.505 E54.48054
G1 X168.166 Y169.075 E54.59901
G1 X166.209 Y170.704 E54.71757
G1 X164.304 Y172.382 E54.83578
G1 X162.734 Y173.845 E54.93571
G1 X162.472 Y174.082 E54.95216
G1 X161.776 Y174.658 E54.99423
G1 X161.032 Y175.17 E55.03628
G1 X160.245 Y175.614 E55.07836
G1 X159.422 Y175.986 E55.12041
G1 X158.57 Y176.285 E55.16246
G1 X157.695 Y176.507 E55.20449
G1 X156.803 Y176.65 E55.24656
G1 X155.942 Y176.713 E55.28676
G1 X155.616 Y176.723 E55.30194
G1 X155.303 Y176.728 E55.31652
G1 X79.994 Y176.727 E58.82322
G1 X79.297 Y176.717 E58.85568
G1 X78.574 Y176.681 E58.88939
G1 X75.717 Y176.437 E59.02291
G1 X73.224 Y176.296 E59.13918
G1 X69.274 Y176.213 E59.32315
G1 X66.006 Y176.212 E59.47532
G1 X65.308 Y176.202 E59.50782
G1 X64.406 Y176.149 E59.5499
G1 X63.513 Y176.017 E59.59193
G1 X62.635 Y175.806 E59.63398
G1 X61.779 Y175.518 E59.67603
G1 X60.952 Y175.156 E59.71807
G1 X60.16 Y174.721 E59.76014
G1 X59.409 Y174.219 E59.80221
G1 X58.706 Y173.652 E59.84426
G1 X58.056 Y173.025 E59.88632
G1 X57.464 Y172.343 E59.92837
G1 X56.934 Y171.612 E59.97041
G1 X56.472 Y170.836 E60.01246
G1 X56.079 Y170.023 E60.05451
G1 X55.761 Y169.178 E60.09655
G1 X55.518 Y168.308 E60.13861
G1 X55.353 Y167.42 E60.18067
G1 X55.258 Y166.279 E60.23398
G1 X55.249 Y165.947 E60.24945
G1 X55.245 Y165.671 E60.2623
G1 X55.246 Y141.176 E61.40289
G1 X55.256 Y140.47 E61.43577
G1 X55.264 Y140.18 E61.44928
G1 X55.291 Y139.538 E61.4792
G1 X55.366 Y136.909 E61.60167
G1 X55.375 Y135.594 E61.6629
G1 X55.375 Y117.871 E62.48816
G1 X55.338 Y115.27 E62.60928
G1 X55.284 Y113.985 E62.66917
G1 X55.249 Y112.805 E62.72414
G1 X55.245 Y112.503 E62.7382
G1 X55.245 Y87.414 E63.90645
G1 X55.247 Y86.415 E63.95297
G1 X55.245 Y86.151 E63.96526
G1 X55.246 Y61.583 E65.10925
G1 X55.256 Y60.894 E65.14134
G1 X55.309 Y59.992 E65.18341
G1 X55.442 Y59.099 E65.22545
G1 X55.653 Y58.221 E65.2675
G1 X55.941 Y57.365 E65.30955
G1 X56.303 Y56.538 E65.35159
G1 X56.738 Y55.746 E65.39367
G1 X57.24 Y54.996 E65.43569
G1 X57.807 Y54.293 E65.47774
G1 X58.434 Y53.643 E65.5198
G1 F1500 E59.0198
;MESH:Piston Cover.stl(4)
G0 F6000 X71.023 Y72.273
G0 X70.264 Y71.03
G0 X69.293 Y72.711
G0 X69.105 Y73.604
G0 X69.21 Y74.509
G0 X69.601 Y75.335
G0 X70.234 Y75.992
G0 X71.045 Y76.413
G0 X72.588 Y76.639
;TYPE:WALL-INNER
G1 F1500 E65.5198
G1 F1200 X72.897 Y76.551 E65.53476
G1 X73.196 Y76.429 E65.5498
G1 X73.481 Y76.275 E65.56488
G1 X73.746 Y76.091 E65.5799
G1 X73.989 Y75.882 E65.59483
G1 X74.211 Y75.645 E65.60995
G1 X74.404 Y75.386 E65.62499
G1 X74.568 Y75.108 E65.64002
G1 X74.7 Y74.814 E65.65502
G1 X74.801 Y74.507 E65.67007
G1 X74.871 Y74.179 E65.68569
G1 X74.903 Y73.6 E65.71269
G1 X74.865 Y73.251 E65.72904
G1 X74.796 Y72.934 E65.74414
G1 X74.692 Y72.629 E65.75915
G1 X74.557 Y72.336 E65.77417
G1 X74.389 Y72.058 E65.7893
G1 X74.179 Y71.785 E65.80533
G1 X73.954 Y71.551 E65.82045
G1 X73.707 Y71.346 E65.8354
G1 X73.439 Y71.167 E65.8504
G1 X73.151 Y71.017 E65.86552
G1 X72.851 Y70.901 E65.8805
G1 X72.54 Y70.817 E65.8955
G1 X72.221 Y70.767 E65.91054
G1 X71.898 Y70.752 E65.92559
G1 X71.577 Y70.772 E65.94057
G1 X71.256 Y70.828 E65.95574
G1 X70.948 Y70.916 E65.97066
G1 X70.648 Y71.038 E65.98574
G1 X70.364 Y71.192 E66.00078
G1 X70.098 Y71.376 E66.01584
G1 X69.856 Y71.585 E66.03073
G1 X69.634 Y71.821 E66.04582
G1 X69.44 Y72.082 E66.06096
G1 X69.277 Y72.359 E66.07593
G1 X69.143 Y72.652 E66.09093
G1 X69.044 Y72.959 E66.10595
G1 X68.976 Y73.274 E66.12096
G1 X68.944 Y73.595 E66.13598
G1 X68.946 Y73.918 E66.15102
G1 X68.984 Y74.24 E66.16611
G1 X69.056 Y74.554 E66.18112
G1 X69.161 Y74.859 E66.19614
G1 X69.3 Y75.152 E66.21124
G1 X69.468 Y75.426 E66.2262
G1 X69.665 Y75.682 E66.24124
G1 X69.891 Y75.916 E66.25639
G1 X70.137 Y76.121 E66.2713
G1 X70.406 Y76.299 E66.28632
G1 X70.692 Y76.45 E66.30138
G1 X70.995 Y76.566 E66.31649
G1 X71.303 Y76.65 E66.33135
G1 X71.624 Y76.7 E66.34648
G1 X71.946 Y76.715 E66.36149
G1 X72.269 Y76.695 E66.37656
G1 X72.588 Y76.639 E66.39164
G0 F6000 X72.498 Y76.249
;TYPE:WALL-OUTER
G1 F1200 X72.766 Y76.172 E66.40463
G1 X73.025 Y76.067 E66.41764
G1 X73.271 Y75.934 E66.43066
G1 X73.501 Y75.774 E66.44371
G1 X73.712 Y75.593 E66.45665
G1 X73.903 Y75.388 E66.4697
G1 X74.07 Y75.164 E66.48271
G1 X74.212 Y74.923 E66.49573
G1 X74.327 Y74.669 E66.50872
G1 X74.414 Y74.403 E66.52175
G1 X74.473 Y74.126 E66.53494
G1 X74.502 Y73.61 E66.559
G1 X74.47 Y73.316 E66.57277
G1 X74.41 Y73.042 E66.58583
G1 X74.32 Y72.778 E66.59882
G1 X74.203 Y72.524 E66.61184
G1 X74.058 Y72.284 E66.6249
G1 X73.876 Y72.047 E66.63881
G1 X73.681 Y71.845 E66.65189
G1 X73.467 Y71.667 E66.66485
G1 X73.235 Y71.512 E66.67784
G1 X72.986 Y71.382 E66.69092
G1 X72.726 Y71.282 E66.70389
G1 X72.457 Y71.209 E66.71687
G1 X72.181 Y71.166 E66.72988
G1 X71.901 Y71.153 E66.74293
G1 X71.623 Y71.17 E66.7559
G1 X71.346 Y71.218 E66.76899
